; generated by PrusaSlicer 2.1.1+win64 on 2020-03-10 at 09:48:24 UTC

; 

; external perimeters extrusion width = 0.45mm
; perimeters extrusion width = 0.45mm
; infill extrusion width = 0.45mm
; solid infill extrusion width = 0.45mm
; top infill extrusion width = 0.40mm
; first layer extrusion width = 0.42mm

M73 P0 R72
M73 Q0 S72
M201 X1000 Y1000 Z1000 E5000 ; sets maximum accelerations, mm/sec^2
M203 X200 Y200 Z12 E120 ; sets maximum feedrates, mm/sec
M204 P1250 R1250 T1250 ; sets acceleration (P, T) and retract acceleration (R), mm/sec^2
M205 X8.00 Y8.00 Z0.40 E4.50 ; sets the jerk limits, mm/sec
M205 S0 T0 ; sets the minimum extruding and travel feed rate, mm/sec
M107
M862.3 P "MK3" ; printer model check
M862.1 P0.4 ; nozzle diameter check
M115 U3.8.1 ; tell printer latest fw version
G90 ; use absolute coordinates
M83 ; extruder relative mode
M104 S215 ; set extruder temp
M140 S60 ; set bed temp
M190 S60 ; wait for bed temp
M109 S215 ; wait for extruder temp
G28 W ; home all without mesh bed level
G80 ; mesh bed leveling
G1 Y-3.0 F1000.0 ; go outside print area
G92 E0.0
G1 X60.0 E9.0 F1000.0 ; intro line
M73 Q0 S72
M73 P0 R72
G1 X100.0 E12.5 F1000.0 ; intro line
G92 E0.0
M221 S95
G21 ; set units to millimeters
G90 ; use absolute coordinates
M83 ; use relative distances for extrusion
M900 K30 ; Filament gcode
;BEFORE_LAYER_CHANGE
G92 E0.0
;0.2


G1 E-0.80000 F2100.00000
G1 Z0.600 F10800.000
;AFTER_LAYER_CHANGE
;0.2
G1 X158.216 Y93.960
G1 Z0.200
G1 E0.80000 F2100.00000
M204 S1000
G1 F1200
G1 X158.972 Y94.383 E0.02717
G1 X159.394 Y94.815 E0.01894
G1 X160.447 Y96.300 E0.05708
G1 X161.668 Y99.002 E0.09296
G1 X162.021 Y100.811 E0.05779
G1 X162.128 Y102.017 E0.03797
G1 X162.112 Y103.665 E0.05168
G1 X162.015 Y104.640 E0.03070
G1 X158.736 Y128.180 E0.74520
G1 X158.297 Y129.730 E0.05050
G1 X157.599 Y131.072 E0.04744
G1 X156.840 Y132.063 E0.03916
G1 X155.658 Y133.127 E0.04984
G1 X154.238 Y133.948 E0.05145
G1 X152.801 Y134.422 E0.04744
G1 X151.534 Y134.603 E0.04013
G1 X149.841 Y134.517 E0.05316
G1 X148.295 Y134.101 E0.05020
G1 X146.945 Y133.425 E0.04735
G1 X145.640 Y132.393 E0.05214
G1 X144.794 Y131.408 E0.04072
G1 X144.036 Y130.126 E0.04670
G1 X143.495 Y128.534 E0.05271
G1 X143.310 Y126.876 E0.05234
G1 X143.460 Y125.338 E0.04843
G1 X143.785 Y124.175 E0.03787
G1 X155.014 Y95.342 E0.97018
G1 X155.409 Y94.715 E0.02324
G1 X155.963 Y94.228 E0.02312
G1 X156.636 Y93.918 E0.02324
G1 X157.366 Y93.814 E0.02312
G1 X158.157 Y93.950 E0.02516
G1 X158.091 Y94.320 F10800.000
G1 F1200
G1 X158.770 Y94.704 E0.02445
G1 X159.108 Y95.062 E0.01544
G1 X160.138 Y96.521 E0.05600
G1 X161.308 Y99.112 E0.08914
G1 X161.648 Y100.872 E0.05620
G1 X161.752 Y102.055 E0.03724
G1 X161.735 Y103.650 E0.05001
G1 X161.641 Y104.592 E0.02970
G1 X158.365 Y128.117 E0.74472
G1 X157.945 Y129.595 E0.04816
G1 X157.278 Y130.874 E0.04522
G1 X156.564 Y131.806 E0.03683
G1 X155.440 Y132.819 E0.04744
G1 X154.080 Y133.605 E0.04924
G1 X152.714 Y134.055 E0.04509
G1 X151.523 Y134.226 E0.03774
G1 X149.904 Y134.145 E0.05082
G1 X148.403 Y133.738 E0.04877
G1 X146.990 Y133.005 E0.04991
G1 X145.839 Y132.061 E0.04668
G1 X144.878 Y130.867 E0.04805
G1 X144.303 Y129.793 E0.03820
G1 X143.850 Y128.385 E0.04638
G1 X143.687 Y126.852 E0.04834
G1 X143.844 Y125.335 E0.04783
G1 X144.137 Y124.311 E0.03339
G1 X155.353 Y95.507 E0.96917
G1 X155.687 Y94.969 E0.01987
G1 X156.162 Y94.548 E0.01987
G1 X156.736 Y94.282 E0.01987
G1 X157.364 Y94.191 E0.01987
G1 X158.032 Y94.309 E0.02129
G1 F8640
G1 X158.770 Y94.704 E-0.19315
G1 X159.108 Y95.062 E-0.11369
G1 X160.138 Y96.521 E-0.41238
G1 X160.211 Y96.682 E-0.04078
G1 E-0.04000 F2100.00000
G1 Z0.800 F10800.000
G1 X151.943 Y122.419
G1 Z0.200
G1 E0.80000 F2100.00000
G1 F1200
G1 X152.429 Y122.542 E0.01572
G1 X152.899 Y122.718 E0.01574
G1 X153.333 Y122.938 E0.01525
G1 X153.753 Y123.212 E0.01574
G1 X154.141 Y123.532 E0.01575
G1 X154.469 Y123.869 E0.01475
G1 X154.789 Y124.277 E0.01626
G1 X155.034 Y124.676 E0.01469
G1 X155.270 Y125.174 E0.01727
G1 X155.422 Y125.618 E0.01471
G1 X155.531 Y126.108 E0.01576
G1 X155.585 Y126.592 E0.01525
G1 X155.586 Y127.062 E0.01474
G1 X155.527 Y127.609 E0.01726
G1 X155.420 Y128.080 E0.01515
G1 X155.249 Y128.570 E0.01627
G1 X155.048 Y128.995 E0.01475
G1 X154.784 Y129.423 E0.01575
G1 X154.486 Y129.806 E0.01523
G1 X154.127 Y130.175 E0.01615
G1 X153.754 Y130.481 E0.01512
G1 X153.325 Y130.760 E0.01605
G1 X152.894 Y130.978 E0.01515
G1 X152.442 Y131.148 E0.01512
G1 X151.919 Y131.279 E0.01692
G1 X151.440 Y131.344 E0.01514
G1 X150.957 Y131.357 E0.01515
G1 X150.448 Y131.314 E0.01604
G1 X149.974 Y131.221 E0.01514
G1 X149.486 Y131.067 E0.01604
G1 X149.069 Y130.884 E0.01429
G1 X148.601 Y130.616 E0.01691
G1 X148.213 Y130.330 E0.01510
G1 X147.838 Y129.983 E0.01603
G1 X147.521 Y129.619 E0.01514
G1 X147.230 Y129.198 E0.01603
G1 X147.001 Y128.772 E0.01517
G1 X146.819 Y128.325 E0.01513
G1 X146.673 Y127.808 E0.01687
G1 X146.595 Y127.330 E0.01516
G1 X146.569 Y126.847 E0.01517
G1 X146.597 Y126.346 E0.01574
G1 X146.677 Y125.866 E0.01526
G1 X146.813 Y125.383 E0.01574
G1 X146.990 Y124.947 E0.01475
G1 X147.250 Y124.465 E0.01718
G1 X147.518 Y124.079 E0.01474
G1 X147.848 Y123.700 E0.01573
G1 X148.217 Y123.361 E0.01573
G1 X148.609 Y123.073 E0.01525
G1 X149.044 Y122.821 E0.01575
G1 X149.475 Y122.632 E0.01478
G1 X149.969 Y122.475 E0.01624
G1 X150.443 Y122.381 E0.01516
G1 X150.991 Y122.338 E0.01722
G1 X151.446 Y122.350 E0.01427
G1 X151.884 Y122.411 E0.01386
G1 X151.935 Y122.037 F10800.000
G1 F1200
G1 X152.542 Y122.181 E0.01956
G1 X153.051 Y122.373 E0.01705
G1 X153.522 Y122.611 E0.01654
G1 X153.977 Y122.908 E0.01705
G1 X154.396 Y123.254 E0.01705
G1 X154.753 Y123.620 E0.01603
G1 X155.099 Y124.061 E0.01756
G1 X155.366 Y124.496 E0.01601
G1 X155.620 Y125.032 E0.01859
G1 X155.785 Y125.515 E0.01601
G1 X155.904 Y126.046 E0.01705
G1 X155.962 Y126.570 E0.01654
G1 X155.963 Y127.081 E0.01602
G1 X155.899 Y127.671 E0.01859
G1 X155.783 Y128.184 E0.01650
G1 X155.599 Y128.713 E0.01757
G1 X155.380 Y129.175 E0.01603
G1 X155.095 Y129.638 E0.01705
G1 X154.771 Y130.054 E0.01653
G1 X154.382 Y130.453 E0.01746
G1 X153.977 Y130.786 E0.01643
G1 X153.513 Y131.088 E0.01735
G1 X153.045 Y131.324 E0.01644
G1 X152.555 Y131.508 E0.01643
G1 X151.990 Y131.650 E0.01824
G1 X151.471 Y131.720 E0.01644
G1 X150.946 Y131.734 E0.01644
G1 X150.395 Y131.688 E0.01734
G1 X149.881 Y131.587 E0.01644
G1 X149.353 Y131.421 E0.01734
G1 X148.899 Y131.221 E0.01556
G1 X148.395 Y130.932 E0.01822
G1 X147.973 Y130.621 E0.01643
G1 X147.567 Y130.246 E0.01733
G1 X147.223 Y129.850 E0.01645
G1 X146.908 Y129.395 E0.01733
G1 X146.659 Y128.934 E0.01646
G1 X146.461 Y128.448 E0.01644
G1 X146.305 Y127.889 E0.01819
G1 X146.220 Y127.371 E0.01645
G1 X146.191 Y126.847 E0.01646
G1 X146.222 Y126.305 E0.01704
G1 X146.308 Y125.784 E0.01655
G1 X146.456 Y125.261 E0.01704
G1 X146.648 Y124.786 E0.01606
G1 X146.928 Y124.267 E0.01849
G1 X147.220 Y123.847 E0.01605
G1 X147.577 Y123.437 E0.01704
G1 X147.977 Y123.069 E0.01704
G1 X148.403 Y122.757 E0.01655
G1 X148.873 Y122.485 E0.01704
G1 X149.342 Y122.278 E0.01606
G1 X149.875 Y122.109 E0.01754
G1 X150.392 Y122.007 E0.01651
G1 X150.981 Y121.960 E0.01854
G1 X151.477 Y121.974 E0.01555
G1 X151.876 Y122.029 E0.01262
G1 X152.069 Y122.414 F10800.000
G1 F8640
G1 X152.542 Y122.181 E-0.15787
G1 X153.051 Y122.373 E-0.12553
G1 X153.522 Y122.611 E-0.12182
G1 X153.977 Y122.908 E-0.12553
G1 X154.396 Y123.254 E-0.12556
G1 X154.710 Y123.576 E-0.10370
G1 E-0.04000 F2100.00000
G1 Z0.800 F10800.000
G1 X153.202 Y122.999
G1 Z0.200
G1 E0.80000 F2100.00000
G1 F1200
G1 X154.936 Y124.732 E0.07825
G1 X155.313 Y125.652 F10800.000
G1 F1200
G1 X152.550 Y122.889 E0.12474
G1 X152.345 Y122.812 E0.00701
G1 X151.803 Y122.685 E0.01776
G1 X155.246 Y126.128 E0.15543
G1 X155.302 Y126.727 E0.01922
G1 X151.202 Y122.627 E0.18513
G1 X150.998 Y122.621 E0.00650
G1 X150.678 Y122.646 E0.01024
G1 X155.281 Y127.249 E0.20779
G1 X155.211 Y127.722 E0.01527
G1 X150.205 Y122.716 E0.22599
G1 X150.039 Y122.749 E0.00541
G1 X149.778 Y122.832 E0.00874
G1 X155.096 Y128.150 E0.24008
G1 X154.948 Y128.545 E0.01346
G1 X149.384 Y122.981 E0.25120
G1 X149.021 Y123.161 E0.01293
G1 X154.769 Y128.909 E0.25948
G1 X154.562 Y129.245 E0.01260
G1 X148.685 Y123.368 E0.26531
G1 X148.375 Y123.600 E0.01238
G1 X154.326 Y129.551 E0.26867
G1 X154.065 Y129.833 E0.01226
G1 X148.092 Y123.860 E0.26965
G1 X147.835 Y124.146 E0.01227
G1 X153.781 Y130.093 E0.26846
G1 X153.473 Y130.327 E0.01237
G1 X147.601 Y124.455 E0.26507
G1 X147.395 Y124.792 E0.01260
G1 X153.140 Y130.537 E0.25936
G1 X152.779 Y130.719 E0.01290
G1 X147.212 Y125.152 E0.25133
G1 X147.062 Y125.545 E0.01342
G1 X152.384 Y130.867 E0.24030
G1 X151.953 Y130.979 E0.01422
G1 X146.946 Y125.972 E0.22604
G1 X146.875 Y126.444 E0.01523
G1 X151.484 Y131.053 E0.20807
G1 X150.962 Y131.073 E0.01668
G1 X146.859 Y126.971 E0.18521
G1 X146.877 Y127.300 E0.01052
G1 X146.922 Y127.577 E0.00897
G1 X150.352 Y131.007 E0.15484
G1 X150.044 Y130.946 E0.01002
G1 X149.613 Y130.811 E0.01442
G1 X146.861 Y128.059 E0.12422
G1 F8640
G1 X149.189 Y130.386 E-0.76000
G1 E-0.04000 F2100.00000
G1 Z0.800 F10800.000
G1 X147.243 Y128.984
G1 Z0.200
G1 E0.80000 F2100.00000
G1 F1200
G1 X148.938 Y130.679 E0.07651
G1 F8640
G1 X147.243 Y128.984 E-0.55345
G1 E-0.24655 F2100.00000
G1 Z0.800 F10800.000
G1 X159.212 Y104.582
G1 Z0.200
G1 E0.80000 F2100.00000
G1 F1200
G1 X159.329 Y101.811 E0.08695
G1 X159.355 Y102.129 E0.00999
G1 X159.368 Y102.795 E0.02090
G1 X159.339 Y103.539 E0.02335
G1 X159.222 Y104.523 E0.03106
G1 X159.235 Y104.183 F10800.000
M106 S255
;BEFORE_LAYER_CHANGE
G92 E0.0
;0.35


G1 F8640
G1 X159.329 Y101.811 E-0.62661
G1 X159.355 Y102.129 E-0.07354
G1 X159.360 Y102.388 E-0.05985
G1 E-0.04000 F2100.00000
G1 Z0.800 F10800.000
;AFTER_LAYER_CHANGE
;0.35
G1 X158.216 Y93.960
G1 Z0.350
G1 E0.80000 F2100.00000
G1 F1009
G1 X158.972 Y94.383 E0.02095
G1 X159.394 Y94.815 E0.01461
G1 X160.447 Y96.300 E0.04403
G1 X161.668 Y99.002 E0.07171
G1 X162.021 Y100.811 E0.04457
G1 X162.128 Y102.017 E0.02929
G1 X162.112 Y103.665 E0.03986
G1 X162.015 Y104.640 E0.02368
G1 X158.736 Y128.180 E0.57480
G1 X158.297 Y129.730 E0.03895
G1 X157.599 Y131.072 E0.03659
G1 X156.840 Y132.063 E0.03020
G1 X155.658 Y133.127 E0.03844
G1 X154.238 Y133.948 E0.03968
G1 X152.801 Y134.422 E0.03659
G1 X151.534 Y134.603 E0.03095
G1 X149.841 Y134.517 E0.04100
G1 X148.295 Y134.101 E0.03872
G1 X146.945 Y133.425 E0.03652
G1 X145.640 Y132.393 E0.04022
G1 X144.794 Y131.408 E0.03141
G1 X144.036 Y130.126 E0.03602
G1 X143.495 Y128.534 E0.04066
G1 X143.310 Y126.876 E0.04037
G1 X143.460 Y125.338 E0.03736
G1 X143.785 Y124.175 E0.02921
G1 X155.014 Y95.342 E0.74834
G1 X155.409 Y94.715 E0.01793
G1 X155.963 Y94.228 E0.01783
G1 X156.636 Y93.918 E0.01793
G1 X157.366 Y93.814 E0.01783
G1 X158.157 Y93.950 E0.01941
G1 F8640
G1 X158.972 Y94.383 E-0.21317
G1 X159.394 Y94.815 E-0.13948
G1 X160.414 Y96.254 E-0.40735
G1 E-0.04000 F2100.00000
G1 Z0.950 F10800.000
G1 X151.939 Y122.417
G1 Z0.350
G1 E0.80000 F2100.00000
M204 S800
G1 F1009
G1 X152.434 Y122.542 E0.01330
G1 X152.912 Y122.723 E0.01331
G1 X153.328 Y122.934 E0.01217
G1 X153.757 Y123.214 E0.01334
G1 X154.119 Y123.510 E0.01219
G1 X154.447 Y123.843 E0.01218
G1 X154.791 Y124.279 E0.01447
G1 X155.011 Y124.634 E0.01089
G1 X155.287 Y125.217 E0.01680
G1 X155.422 Y125.615 E0.01094
G1 X155.534 Y126.115 E0.01335
G1 X155.585 Y126.579 E0.01217
G1 X155.587 Y127.090 E0.01331
G1 X155.531 Y127.597 E0.01331
G1 X155.429 Y128.053 E0.01217
G1 X155.265 Y128.538 E0.01334
G1 X155.068 Y128.958 E0.01208
G1 X154.754 Y129.466 E0.01558
G1 X154.466 Y129.831 E0.01210
G1 X154.112 Y130.189 E0.01312
G1 X153.758 Y130.480 E0.01193
G1 X153.307 Y130.772 E0.01402
G1 X152.896 Y130.978 E0.01196
G1 X152.470 Y131.140 E0.01188
G1 X151.873 Y131.287 E0.01603
G1 X151.419 Y131.347 E0.01193
G1 X150.961 Y131.358 E0.01194
G1 X150.425 Y131.311 E0.01401
G1 X149.975 Y131.222 E0.01197
G1 X149.535 Y131.086 E0.01200
G1 X149.113 Y130.905 E0.01194
G1 X148.579 Y130.602 E0.01600
G1 X148.215 Y130.333 E0.01181
G1 X147.821 Y129.967 E0.01400
G1 X147.522 Y129.621 E0.01191
G1 X147.217 Y129.178 E0.01400
G1 X147.000 Y128.773 E0.01198
G1 X146.827 Y128.351 E0.01189
G1 X146.664 Y127.760 E0.01598
G1 X146.592 Y127.307 E0.01194
G1 X146.568 Y126.848 E0.01197
G1 X146.597 Y126.338 E0.01333
G1 X146.674 Y125.876 E0.01218
G1 X146.812 Y125.384 E0.01333
G1 X146.969 Y124.993 E0.01098
G1 X147.273 Y124.428 E0.01672
G1 X147.514 Y124.082 E0.01097
G1 X147.849 Y123.697 E0.01331
G1 X148.226 Y123.352 E0.01330
G1 X148.603 Y123.076 E0.01218
G1 X149.045 Y122.819 E0.01333
G1 X149.473 Y122.631 E0.01217
G1 X149.960 Y122.476 E0.01333
G1 X150.413 Y122.385 E0.01202
G1 X151.053 Y122.338 E0.01673
G1 X151.476 Y122.352 E0.01104
G1 X151.880 Y122.408 E0.01062
M204 S1000
G1 X151.938 Y121.995 F10800.000
M204 S800
G1 F1009
G1 X152.560 Y122.143 E0.01666
G1 X153.081 Y122.340 E0.01451
G1 X153.538 Y122.572 E0.01335
G1 X154.005 Y122.876 E0.01452
G1 X154.401 Y123.201 E0.01336
G1 X154.761 Y123.566 E0.01335
G1 X155.134 Y124.039 E0.01569
G1 X155.379 Y124.434 E0.01213
G1 X155.675 Y125.060 E0.01804
G1 X155.825 Y125.502 E0.01215
G1 X155.946 Y126.046 E0.01453
G1 X156.003 Y126.555 E0.01335
G1 X156.005 Y127.112 E0.01452
G1 X155.943 Y127.666 E0.01452
G1 X155.832 Y128.166 E0.01335
G1 X155.653 Y128.694 E0.01453
G1 X155.437 Y129.157 E0.01332
G1 X155.096 Y129.707 E0.01684
G1 X154.779 Y130.108 E0.01332
G1 X154.394 Y130.499 E0.01429
G1 X154.005 Y130.818 E0.01311
G1 X153.515 Y131.135 E0.01522
G1 X153.065 Y131.362 E0.01312
G1 X152.594 Y131.539 E0.01310
G1 X151.950 Y131.699 E0.01729
G1 X151.451 Y131.764 E0.01311
G1 X150.948 Y131.776 E0.01312
G1 X150.366 Y131.726 E0.01521
G1 X149.872 Y131.628 E0.01313
G1 X149.390 Y131.479 E0.01314
G1 X148.927 Y131.280 E0.01312
G1 X148.351 Y130.953 E0.01726
G1 X147.947 Y130.655 E0.01308
G1 X147.520 Y130.258 E0.01520
G1 X147.190 Y129.877 E0.01311
G1 X146.860 Y129.396 E0.01520
G1 X146.621 Y128.952 E0.01314
G1 X146.431 Y128.487 E0.01311
G1 X146.255 Y127.848 E0.01725
G1 X146.176 Y127.351 E0.01312
G1 X146.150 Y126.847 E0.01314
G1 X146.181 Y126.291 E0.01452
G1 X146.265 Y125.786 E0.01336
G1 X146.416 Y125.249 E0.01452
G1 X146.590 Y124.815 E0.01219
G1 X146.917 Y124.208 E0.01796
G1 X147.184 Y123.825 E0.01218
G1 X147.550 Y123.405 E0.01451
G1 X147.960 Y123.029 E0.01451
G1 X148.374 Y122.725 E0.01336
G1 X148.856 Y122.446 E0.01452
G1 X149.325 Y122.239 E0.01336
G1 X149.856 Y122.070 E0.01452
G1 X150.356 Y121.970 E0.01330
G1 X151.045 Y121.920 E0.01798
G1 X151.512 Y121.935 E0.01219
G1 X151.878 Y121.986 E0.00964
M204 S1000
G1 X152.071 Y122.372 F10800.000
G1 F8640
G1 X152.560 Y122.143 E-0.16140
G1 X153.081 Y122.340 E-0.12862
G1 X153.538 Y122.572 E-0.11831
G1 X154.005 Y122.876 E-0.12871
G1 X154.401 Y123.201 E-0.11836
G1 X154.719 Y123.524 E-0.10459
G1 E-0.04000 F2100.00000
G1 Z0.950 F10800.000
G1 X149.985 Y122.599
G1 Z0.350
G1 E0.80000 F2100.00000
G1 F1009
G1 X147.115 Y125.469 E0.10618
G1 X146.980 Y125.945 E0.01294
G1 X146.929 Y126.248 E0.00805
G1 X150.484 Y122.694 E0.13150
G1 X151.117 Y122.654 E0.01661
G1 X146.884 Y126.887 E0.15664
G1 X146.929 Y127.435 E0.01438
G1 X151.669 Y122.695 E0.17536
G1 X151.879 Y122.725 E0.00555
G1 X152.161 Y122.796 E0.00762
G1 X147.034 Y127.924 E0.18972
G1 X147.175 Y128.375 E0.01239
G1 X152.608 Y122.943 E0.20101
G1 X153.017 Y123.127 E0.01174
G1 X147.361 Y128.783 E0.20928
G1 X147.582 Y129.156 E0.01133
G1 X153.390 Y123.348 E0.21489
G1 X153.732 Y123.598 E0.01111
G1 X147.831 Y129.500 E0.21835
G1 X148.113 Y129.811 E0.01099
G1 X154.044 Y123.880 E0.21943
G1 X154.324 Y124.193 E0.01099
G1 X148.421 Y130.096 E0.21841
G1 X148.750 Y130.339 E0.01070
G1 X148.764 Y130.347 E0.00041
G1 X154.579 Y124.531 E0.21517
G1 X154.795 Y124.909 E0.01138
G1 X149.142 Y130.562 E0.20914
G1 X149.547 Y130.750 E0.01168
G1 X154.985 Y125.312 E0.20122
G1 X155.120 Y125.700 E0.01074
G1 X155.133 Y125.758 E0.00155
G1 X149.991 Y130.899 E0.19024
G1 X150.482 Y131.002 E0.01312
G1 X155.234 Y126.250 E0.17581
G1 X155.272 Y126.597 E0.00912
G1 X155.273 Y126.804 E0.00543
G1 X151.034 Y131.043 E0.15682
G1 X151.395 Y131.034 E0.00943
G1 X151.673 Y130.998 E0.00734
G1 X155.233 Y127.437 E0.13173
G1 X155.127 Y127.969 E0.01417
